svg/document.svg

<svg xmlns="http://www.w3.org/2000/svg" viewBox="0 0 48 64" enable-background="new 0 0 48 64"><style type="text/css">.st0{fill:#333333;}</style><title>download</title><path class="st0" d="M45 0h-42c-1.7 0-3 1.3-3 3v58c0 1.7 1.3 3 3 3h42c1.7 0 3-1.3 3-3v-58c0-1.7-1.3-3-3-3zm-1 60h-40v-56h40v56zM10 16h28c1.1 0 2-.9 2-2s-.9-2-2-2h-28c-1.1 0-2 .9-2 2s.9 2 2 2zM10 28h28c1.1 0 2-.9 2-2s-.9-2-2-2h-28c-1.1 0-2 .9-2 2s.9 2 2 2zM10 40h28c1.1 0 2-.9 2-2s-.9-2-2-2h-28c-1.1 0-2 .9-2 2s.9 2 2 2zM10 52h28c1.1 0 2-.9 2-2s-.9-2-2-2h-28c-1.1 0-2 .9-2 2s.9 2 2 2z"/></svg>

<svg xmlns="http://www.w3.org/2000/svg" viewBox="0 0 48 64"><path d="M45 0H3C1.3 0 0 1.3 0 3v58c0 1.7 1.3 3 3 3h42c1.7 0 3-1.3 3-3V3c0-1.7-1.3-3-3-3zm-1 60H4V4h40v56zM10 16h28c1.1 0 2-.9 2-2s-.9-2-2-2H10c-1.1 0-2 .9-2 2s.9 2 2 2zm0 12h28c1.1 0 2-.9 2-2s-.9-2-2-2H10c-1.1 0-2 .9-2 2s.9 2 2 2zm0 12h28c1.1 0 2-.9 2-2s-.9-2-2-2H10c-1.1 0-2 .9-2 2s.9 2 2 2zm0 12h28c1.1 0 2-.9 2-2s-.9-2-2-2H10c-1.1 0-2 .9-2 2s.9 2 2 2z" fill="#333"/></svg>
